en/_assets/wiki/svg/wysiwyg/user.svg

<svg xmlns="http://www.w3.org/2000/svg" xmlns:xlink="http://www.w3.org/1999/xlink" width="16" height="16" class="yc-icon" fill="currentColor" stroke="none" aria-hidden="true"><svg viewBox="0 0 16 16" fill="none" xmlns="http://www.w3.org/2000/svg"><path d="M10.2598 9.34375C9.52344 9.34375 9.19336 9.75 8 9.75C6.78125 9.75 6.45117 9.34375 5.71484 9.34375C3.83594 9.34375 2.3125 10.8926 2.3125 12.7715V13.4062C2.3125 14.0918 2.8457 14.625 3.53125 14.625H12.4688C13.1289 14.625 13.6875 14.0918 13.6875 13.4062V12.7715C13.6875 10.8926 12.1387 9.34375 10.2598 9.34375ZM12.4688 13.4062H3.53125V12.7715C3.53125 11.5527 4.49609 10.5625 5.71484 10.5625C6.0957 10.5625 6.67969 10.9688 8 10.9688C9.29492 10.9688 9.87891 10.5625 10.2598 10.5625C11.4785 10.5625 12.4688 11.5527 12.4688 12.7715V13.4062ZM8 8.9375C10.0059 8.9375 11.6562 7.3125 11.6562 5.28125C11.6562 3.27539 10.0059 1.625 8 1.625C5.96875 1.625 4.34375 3.27539 4.34375 5.28125C4.34375 7.3125 5.96875 8.9375 8 8.9375ZM8 2.84375C9.32031 2.84375 10.4375 3.96094 10.4375 5.28125C10.4375 6.62695 9.32031 7.71875 8 7.71875C6.6543 7.71875 5.5625 6.62695 5.5625 5.28125C5.5625 3.96094 6.6543 2.84375 8 2.84375Z" fill="currentColor"></path></svg></svg>

<svg xmlns="http://www.w3.org/2000/svg" width="16" height="16" fill="currentColor" aria-hidden="true" class="yc-icon"><svg xmlns="http://www.w3.org/2000/svg" fill="none" viewBox="0 0 16 16"><path fill="currentColor" d="M10.26 9.344c-.737 0-1.067.406-2.26.406-1.219 0-1.549-.406-2.285-.406-1.88 0-3.402 1.549-3.402 3.428v.634c0 .686.533 1.219 1.218 1.219h8.938c.66 0 1.219-.533 1.219-1.219v-.635a3.446 3.446 0 0 0-3.428-3.427Zm2.209 4.062H3.53v-.635c0-1.218.965-2.209 2.184-2.209.38 0 .965.407 2.285.407 1.295 0 1.879-.406 2.26-.406a2.21 2.21 0 0 1 2.209 2.208v.635ZM8 8.937a3.657 3.657 0 0 0 3.656-3.656A3.674 3.674 0 0 0 8 1.625a3.657 3.657 0 0 0-3.656 3.656A3.641 3.641 0 0 0 8 8.938Zm0-6.093c1.32 0 2.438 1.117 2.438 2.437A2.455 2.455 0 0 1 8 7.72 2.438 2.438 0 0 1 5.562 5.28 2.455 2.455 0 0 1 8 2.844Z"/></svg></svg>
